src/topics/icons/strider.svg

<svg height="256" preserveAspectRatio="xMidYMid" viewBox="0 0 256 256" width="256" xmlns="http://www.w3.org/2000/svg"><path d="m20.64 58.4320102 101.216 55.2319998 3.072-58.3679998-31.296-50.49599996c-30.395351 8.46939136-56.22016 27.79743236-72.992 53.63199996zm144.864-52.83199996-33.408 49.69599996 1.024 62.4639998 103.36-57.4719998c-16.169298-25.8533888-41.219604-45.5755776-70.976-54.68799996z" fill="#006eaf"/><path d="m60.032 236.32001 62.848-102.176-102.272-75.6799998c-12.99265536 20.0283034-20.608 43.8844728-20.608 69.5359998 0 45.690307 24.0119501 85.67123 60.032 108.32zm176.448-176.0319998-103.36 73.8559998 63.904 101.504c35.430922-22.764462 58.976-62.405878 58.976-107.648 0-24.885678-7.200625-48.0598218-19.488-67.7119998-.003072-.00512-.029082.00512-.031949 0z" fill="#00a7e1"/><path d="m129.024 255.93601-6.144-100.288-62.816 80.672c19.7056102 12.384676 42.943642 19.68 67.936 19.68.345887 0 .678769-.061235 1.024-.064zm68-20.288-64.928-82.048-3.072 102.336c25.057556-.198779 48.339702-7.656212 68-20.288z" fill="#5bc9ec"/><path d="m165.504 5.60001024-36.48 43.55199996-35.36-44.38399996c-.0124928.003072-.019456.0285696-.0319488.0319488l31.2959488 50.49605116-3.072 58.3679998-101.216-55.2319998c-.008192.012288-.024064.0197632-.0319488.0319488l102.2719488 75.680051-62.848 102.176c.008192.00512.0242688-.00512.0319488 0l62.8160512-80.672 6.144 100.288 3.072-102.336 64.928 82.048-63.904-101.504 103.36-73.8559998-103.36 57.4719998-1.024-62.4639998z" fill="#fff"/><path d="m128 .00001024c-11.915776 0-23.39115 1.72192768-34.336 4.768l35.36 44.38399996 36.48-43.55199996c-11.869143-3.6347392-24.444303-5.6-37.504-5.6z" fill="#013a78"/></svg>

<?xml version="1.0" encoding="UTF-8" standalone="no"?>
<svg width="256px" height="256px" viewBox="0 0 256 256" version="1.1" xmlns="http://www.w3.org/2000/svg" xmlns:xlink="http://www.w3.org/1999/xlink" preserveAspectRatio="xMidYMid">
	<g>
		<path d="M20.64,58.4320102 L121.856,113.66401 L124.928,55.2960102 L93.632,4.80001024 C63.236649,13.2694016 37.41184,32.5974426 20.64,58.4320102 Z M165.504,5.60001024 L132.096,55.2960102 L133.12,117.76001 L236.48,60.2880102 C220.310702,34.4346214 195.260396,14.7124326 165.504,5.60001024 Z" fill="#006EAF"></path>
		<path d="M60.032,236.32001 L122.88,134.14401 L20.608,58.4640102 C7.61534464,78.4923136 0,102.348483 0,128.00001 C0,173.690317 24.0119501,213.67124 60.032,236.32001 Z M236.48,60.2880102 L133.12,134.14401 L197.024,235.64801 C232.454922,212.883548 256,173.242132 256,128.00001 C256,103.114332 248.799375,79.9401882 236.512,60.2880102 C236.508928,60.2828902 236.482918,60.2931302 236.480051,60.2880102 L236.48,60.2880102 Z" fill="#00A7E1"></path>
		<path d="M129.024,255.93601 L122.88,155.64801 L60.064,236.32001 C79.7696102,248.704686 103.007642,256.00001 128,256.00001 C128.345887,256.00001 128.678769,255.938775 129.024,255.93601 Z M197.024,235.64801 L132.096,153.60001 L129.024,255.93601 C154.081556,255.737231 177.363702,248.279798 197.024,235.64801 Z" fill="#5BC9EC"></path>
		<path d="M165.504,5.60001024 L129.024,49.1520102 L93.664,4.76801024 C93.6515072,4.77108224 93.644544,4.79657984 93.6320512,4.79995904 L124.928,55.2960102 L121.856,113.66401 L20.64,58.4320102 C20.631808,58.4442982 20.615936,58.4517734 20.6080512,58.463959 L122.88,134.14401 L60.032,236.32001 C60.040192,236.32513 60.0562688,236.31489 60.0639488,236.32001 L122.88,155.64801 L129.024,255.93601 L132.096,153.60001 L197.024,235.64801 L133.12,134.14401 L236.48,60.2880102 L133.12,117.76001 L132.096,55.2960102 L165.504,5.60001024 L165.504,5.60001024 Z" fill="#FFFFFF"></path>
		<path d="M128,1.02400001e-05 C116.084224,1.02400001e-05 104.60885,1.72193792 93.664,4.76801024 L129.024,49.1520102 L165.504,5.60001024 C153.634857,1.96527104 141.059697,1.02400001e-05 128,1.02400001e-05 L128,1.02400001e-05 Z" fill="#013A78"></path>
	</g>
</svg>
